X: 1
T:Irish Washerwoman
M:6/8
K:G
P:A
d|"G"BGG DGG|BGB dcB|"Am"cAA DAA|"D7"cAc edc|
"G"BGG DGG|BGB dcB|"C"cBc "D7"Adc|"G"BGG G2:|
P:B
G/A/|"G"BGG DGG | BGB BAG| "D"AFF DFF|AFA AGF|
"C"EGG "G"DGG|"C"CGG "G"B,GG|"Am"cBc "D7"Adc|1"G"BGG G2:|2"G"BGG G2z|]
